markup/src/img/icon-05.svg

<svg width="30" height="33" viewBox="0 0 30 33" fill="none" xmlns="http://www.w3.org/2000/svg">
<path d="M2.02531 6.75601H19.3871V7.62629C19.3871 8.70932 20.2998 9.5925 21.4124 9.5925C22.525 9.5925 23.4377 8.70932 23.4377 7.62629V6.75601H27.9746C29.0939 6.75601 30 5.87283 30 4.79625C30 3.71967 29.1006 2.83649 27.9813 2.83649H23.4443V1.95976C23.4443 0.876734 22.5316 0 21.419 0C20.3064 0 19.3937 0.88318 19.3937 1.95976V2.83649H2.02531C0.906062 2.83649 0 3.71967 0 4.79625C0 5.87283 0.906062 6.75601 2.02531 6.75601ZM27.9813 3.86794C28.5076 3.86794 28.9407 4.28697 28.9407 4.79625C28.9407 5.30553 28.5076 5.72456 27.9813 5.72456H23.4443V3.86794H27.9813ZM20.4597 1.95976C20.4597 1.45048 20.8927 1.03145 21.419 1.03145C21.9453 1.03145 22.3784 1.45048 22.3784 1.95976V7.62629C22.3784 8.14202 21.9453 8.5546 21.419 8.5546C20.8927 8.5546 20.4597 8.13557 20.4597 7.62629V1.95976ZM2.02531 3.86794H19.3871V5.72456H2.02531C1.499 5.72456 1.06595 5.30553 1.06595 4.79625C1.06595 4.28697 1.499 3.86794 2.02531 3.86794ZM27.9813 14.5435H11.3191V13.6667C11.3191 12.5837 10.4064 11.707 9.29379 11.707C8.1812 11.707 7.26848 12.5902 7.26848 13.6667V14.537H2.02531C0.906062 14.537 0 15.4202 0 16.4968C0 17.5798 0.912724 18.4565 2.02531 18.4565H7.26182V19.3397C7.26182 20.4227 8.17454 21.2995 9.28713 21.2995C10.3997 21.2995 11.3124 20.4163 11.3124 19.3397V18.4694H27.9746C29.0939 18.4694 30 17.5862 30 16.5097C30.0066 15.4202 29.1006 14.5435 27.9813 14.5435ZM2.02531 17.4315C1.499 17.4315 1.06595 17.0125 1.06595 16.5032C1.06595 15.9939 1.499 15.5749 2.02531 15.5749H7.26182V17.4315H2.02531ZM10.2532 19.3397C10.2532 19.849 9.82011 20.268 9.29379 20.268C8.76748 20.268 8.33443 19.849 8.33443 19.3397V13.6667C8.33443 13.1575 8.76748 12.7384 9.29379 12.7384C9.82011 12.7384 10.2532 13.1575 10.2532 13.6667V19.3397ZM27.9813 17.4315H11.3191V15.5749H27.9813C28.5076 15.5749 28.9407 15.9939 28.9407 16.5032C28.9407 17.0125 28.5076 17.4315 27.9813 17.4315ZM27.9813 26.2504H19.4004V25.3802C19.4004 24.2971 18.4877 23.4204 17.3751 23.4204C16.2625 23.4204 15.3497 24.3036 15.3497 25.3802V26.2504H2.02531C0.906062 26.2504 0 27.1336 0 28.2102C0 29.2868 0.906062 30.17 2.02531 30.17H15.3497V31.0402C15.3497 32.1233 16.2625 33 17.3751 33C18.4877 33 19.4004 32.1168 19.4004 31.0402V30.17H27.9746C29.0939 30.17 30 29.2868 30 28.2102C30 27.1336 29.1006 26.2504 27.9813 26.2504ZM2.02531 29.1385C1.499 29.1385 1.06595 28.7195 1.06595 28.2102C1.06595 27.7009 1.499 27.2819 2.02531 27.2819H15.3497V29.1385H2.02531ZM18.3344 31.0467C18.3344 31.556 17.9014 31.975 17.3751 31.975C16.8487 31.975 16.4157 31.556 16.4157 31.0467V25.3802C16.4157 24.8709 16.8487 24.4518 17.3751 24.4518C17.9014 24.4518 18.3344 24.8709 18.3344 25.3802V31.0467ZM27.9813 29.1385H19.4004V27.2819H27.9746C28.501 27.2819 28.934 27.7009 28.934 28.2102C28.934 28.7195 28.5076 29.1385 27.9813 29.1385Z" fill="#40AC6C"/>
</svg>

<svg width="30" height="33" fill="none" xmlns="http://www.w3.org/2000/svg"><path d="M2.025 6.756h17.362v.87c0 1.083.913 1.966 2.025 1.966 1.113 0 2.026-.883 2.026-1.966v-.87h4.537c1.119 0 2.025-.883 2.025-1.96 0-1.076-.9-1.96-2.019-1.96h-4.537V1.96C23.444.877 22.532 0 21.42 0s-2.025.883-2.025 1.96v.876H2.025C.906 2.836 0 3.72 0 4.796c0 1.077.906 1.96 2.025 1.96zm25.956-2.888c.527 0 .96.419.96.928 0 .51-.433.929-.96.929h-4.537V3.868h4.537zM20.46 1.96c0-.51.433-.929.959-.929s.96.42.96.929v5.666c0 .516-.434.929-.96.929s-.96-.42-.96-.929V1.96zM2.025 3.868h17.362v1.857H2.025c-.526 0-.959-.42-.959-.929 0-.509.433-.928.96-.928zm25.956 10.676H11.32v-.877c0-1.083-.913-1.96-2.025-1.96-1.113 0-2.026.883-2.026 1.96v.87H2.025C.906 14.537 0 15.42 0 16.497c0 1.083.913 1.96 2.025 1.96h5.237v.883c0 1.083.913 1.96 2.025 1.96 1.113 0 2.025-.884 2.025-1.96v-.87h16.663c1.119 0 2.025-.884 2.025-1.96.007-1.09-.9-1.967-2.019-1.967zM2.025 17.43c-.526 0-.959-.419-.959-.928 0-.51.433-.928.96-.928h5.236v1.857H2.025zm8.228 1.909c0 .509-.433.928-.96.928-.526 0-.959-.419-.959-.928v-5.673c0-.51.433-.929.96-.929.526 0 .96.42.96.929v5.673zm17.728-1.909H11.32v-1.856h16.662c.527 0 .96.419.96.928 0 .51-.433.928-.96.928zm0 8.82h-8.58v-.87c0-1.084-.913-1.96-2.026-1.96-1.113 0-2.025.883-2.025 1.96v.87H2.025C.906 26.25 0 27.133 0 28.21c0 1.076.906 1.959 2.025 1.959H15.35v.87c0 1.083.912 1.96 2.025 1.96s2.025-.883 2.025-1.96v-.87h8.575c1.119 0 2.025-.883 2.025-1.96 0-1.076-.9-1.96-2.019-1.96zM2.025 29.137c-.526 0-.959-.419-.959-.928 0-.51.433-.928.96-.928H15.35v1.857H2.025zm16.31 1.909c0 .509-.434.928-.96.928s-.96-.419-.96-.928V25.38c0-.51.434-.928.96-.928s.96.419.96.928v5.667zm9.646-1.909h-8.58v-1.856h8.574c.526 0 .959.419.959.928 0 .51-.426.928-.953.928z" fill="#40AC6C"/></svg>
